navigator/static/images/icons/onboarding.svg

<?xml version="1.0" encoding="UTF-8" standalone="no"?>
<svg width="39px" height="43px" viewBox="0 0 39 43" version="1.1" xmlns="http://www.w3.org/2000/svg" xmlns:xlink="http://www.w3.org/1999/xlink">
    <!-- Generator: Sketch 39.1 (31720) - http://www.bohemiancoding.com/sketch -->
    <title>Page 1</title>
    <desc>Created with Sketch.</desc>
    <defs>
        <polygon id="path-1" points="15.0583784 0.695414634 0.757837838 0.695414634 0.757837838 8.80697561 15.0583784 8.80697561 15.0583784 0.695414634"></polygon>
        <polygon id="path-3" points="0 43.3050146 39.2335135 43.3050146 39.2335135 1.0736 0 1.0736"></polygon>
    </defs>
    <g id="solution-3" stroke="none" stroke-width="1" fill="none" fill-rule="evenodd">
        <g id="details" transform="translate(-321.000000, -1594.000000)">
            <g id="Page-1" transform="translate(321.000000, 1593.000000)">
                <path d="M29.1460541,3.87446829 L23.3655135,3.87446829 L23.5741622,4.8092 C23.5914595,4.88754146 23.6011892,4.95837073 23.6011892,5.02598049 L23.6011892,9.12334634 C23.6011892,9.68783415 23.1374054,10.1471512 22.5687568,10.1471512 L8.38281081,10.1471512 C7.81416216,10.1471512 7.35145946,9.68783415 7.35145946,9.12334634 L7.35145946,5.02598049 C7.35145946,4.95837073 7.36010811,4.88754146 7.37740541,4.8092 L7.58605405,3.87446829 L1.80551351,3.87446829 C0.809837838,3.87446829 0.000108108108,4.67827317 0.000108108108,5.66666341 L0.000108108108,41.5127122 C0.000108108108,42.5011024 0.809837838,43.3049073 1.80551351,43.3049073 L13.4163243,43.3049073 L17.5352432,43.3049073 L29.1460541,43.3049073 C30.1417297,43.3049073 30.9514595,42.5011024 30.9514595,41.5127122 L30.9514595,5.66666341 C30.9514595,4.67827317 30.1417297,3.87446829 29.1460541,3.87446829 L29.1460541,3.87446829 Z" id="Fill-1" fill="#1E1348"></path>
                <g id="Group-5" transform="translate(7.567568, 0.378185)">
                    <mask id="mask-2" fill="white">
                        <use xlink:href="#path-1"></use>
                    </mask>
                    <g id="Clip-4"></g>
                    <path d="M0.757837838,7.9055122 L0.757837838,4.29965854 C0.757837838,3.80170732 1.16324324,3.39926829 1.66594595,3.39926829 L5.03891892,3.39926829 C5.03891892,1.90541463 6.31567568,0.694878049 7.89189189,0.694878049 C9.46810811,0.694878049 10.7459459,1.90541463 10.7459459,3.39926829 L14.1502703,3.39926829 C14.652973,3.39926829 15.0583784,3.80170732 15.0583784,4.29965854 L15.0583784,7.9055122 C15.0583784,8.40346341 14.652973,8.80697561 14.1502703,8.80697561 L1.66486486,8.80697561 C1.16324324,8.80697561 0.757837838,8.40346341 0.757837838,7.9055122" id="Fill-3" fill="#1E1348" mask="url(#mask-2)"></path>
                </g>
                <mask id="mask-4" fill="white">
                    <use xlink:href="#path-3"></use>
                </mask>
                <g id="Clip-7"></g>
                <polygon id="Fill-6" fill="#FFFFFF" mask="url(#mask-4)" points="3.63027027 17.4373073 27.3221622 17.4373073 27.3221622 14.8842341 3.63027027 14.8842341"></polygon>
                <polygon id="Fill-8" fill="#1E1348" mask="url(#mask-4)" points="14.7005405 30.302478 26.9189189 30.302478 26.9189189 28.7045268 14.7005405 28.7045268"></polygon>
                <polygon id="Fill-9" fill="#B00D23" mask="url(#mask-4)" points="21.6274595 29.0671512 25.875027 33.283639 35.1777297 24.0554439 38.4696216 27.3221756 29.1734054 36.5503707 25.875027 39.8181756 22.5831351 36.5503707 18.3366486 32.3338829"></polygon>
                <polygon id="Stroke-10" stroke="#FFFFFF" mask="url(#mask-4)" points="21.6274595 29.0671512 25.875027 33.283639 35.1777297 24.0554439 38.4696216 27.3221756 29.1734054 36.5503707 25.875027 39.8181756 22.5831351 36.5503707 18.3366486 32.3338829"></polygon>
                <polygon id="Fill-11" fill="#FFFFFF" mask="url(#mask-4)" points="3.63027027 24.054478 27.3221622 24.054478 27.3221622 21.5014049 3.63027027 21.5014049"></polygon>
            </g>
        </g>
    </g>
</svg>

<svg width="39" height="43" viewBox="0 0 39 43" xmlns="http://www.w3.org/2000/svg" xmlns:xlink="http://www.w3.org/1999/xlink"><title>Page 1</title><defs><path id="a" d="M15.058.695H.758v8.112h14.3V.695z"/><path id="c" d="M0 43.305h39.234V1.074H0z"/></defs><g transform="translate(0 -1)" fill="none" fill-rule="evenodd"><path d="M29.146 3.874h-5.78l.208.935c.017.079.027.15.027.217v4.097a1.03 1.03 0 0 1-1.032 1.024H8.383a1.03 1.03 0 0 1-1.032-1.024V5.026a1 1 0 0 1 .026-.217l.21-.935H1.805A1.8 1.8 0 0 0 0 5.667v35.846a1.8 1.8 0 0 0 1.806 1.792h27.34a1.8 1.8 0 0 0 1.805-1.792V5.667a1.8 1.8 0 0 0-1.805-1.793z" fill="#1E1348"/><g transform="translate(7.568 .378)"><mask id="b" fill="#fff"><use xlink:href="#a"/></mask><path d="M.758 7.906V4.3c0-.498.405-.9.908-.9h3.373c0-1.495 1.277-2.705 2.853-2.705 1.576 0 2.854 1.21 2.854 2.704h3.404c.503 0 .908.403.908.9v3.607a.904.904 0 0 1-.908.901H1.665a.904.904 0 0 1-.907-.901" fill="#1E1348" mask="url(#b)"/></g><mask id="d" fill="#fff"><use xlink:href="#c"/></mask><path fill="#FFF" mask="url(#d)" d="M3.63 17.437h23.692v-2.553H3.63z"/><path fill="#1E1348" mask="url(#d)" d="M14.7 30.302h12.22v-1.597H14.7z"/><path fill="#B00D23" mask="url(#d)" d="M21.627 29.067l4.248 4.217 9.303-9.229 3.292 3.267-9.297 9.228-3.298 3.268-3.292-3.268-4.246-4.216z"/><path stroke="#FFF" mask="url(#d)" d="M21.627 29.067l4.248 4.217 9.303-9.229 3.292 3.267-9.297 9.228-3.298 3.268-3.292-3.268-4.246-4.216z"/><path fill="#FFF" mask="url(#d)" d="M3.63 24.054h23.692v-2.553H3.63z"/></g></svg>
